X:1
T:Title
%%score { ( 1 3 ) | ( 2 4 ) }
L:1/8
M:3/4
K:Ab
V:1 treble nm="Grand Piano"
V:3 treble 
V:2 bass 
V:4 bass 
V:1
 z2 z2[Q:1/4=100] [CA]>[DB] | [Ec]3 [DB] [CA]>[B,E] | [DF] [FA]3 G>A | BE [Gd]3 [Ac] |[M:2/4] B4 | %5
[M:1/4] c>d |[M:3/4] e3 c A>E | F [FA]3 G>A | BA c3 B |[M:2/4] [A,CA]4 |[M:1/4] c>d | %11
[M:3/4] e4 z2 | d4 z2 | d>c d>f e>B |[M:2/4] c4 |[M:1/4] [Ec]>[DEB] | %16
[M:3/4] [CEA]3 [A,EA] [EB]>[_Gc] | [Fd]4 [Ae]>[Af] | [Ae]>A c3 B |[M:2/4] [CA]4 |] %20
V:2
 z2 z2 [A,,A,]>[A,,A,] | [A,,A,]3 [A,,E,] [A,,E,]>[A,,A,] | [D,A,] [D,D]3 [E,B,E]>[E,A,C] | %3
 [E,G,E][E,G,] [E,B,]3 [E,A,] |[M:2/4] [E,G,E]4 |[M:1/4] [A,E]>[A,B,E] | %6
[M:3/4] [A,CE]3 [A,E] [A,CE]>[C,A,] | [D,A,D] [D,D]3 [E,B,E]>[E,CE] | %8
 [E,DE][E,CE] [E,A,E]3 [E,G,D] |[M:2/4] A,,4 |[M:1/4] A,>B, |[M:3/4][K:treble] [A,A]2 z2 z2 | %12
 B,4 z2 | [E,B,E]>[E,=A,E] [E,B,E]>[E,DE] [E,CE]>[E,G,E] |[M:2/4] [A,E]4 |[M:1/4] [A,,A,]>A,, | %16
[M:3/4] A,,3 C, [E,G,]>[A,E] | [D,A,]4 [C,A,]>[D,D] | [E,C]>[E,CE] [E,A,E]3 [E,G,D] | %19
[M:2/4] [A,,A,]4 |] %20
V:3
 x6 | x6 | x6 | x6 |[M:2/4] x4 |[M:1/4] x2 |[M:3/4] x6 | x6 | x6 |[M:2/4] x4 |[M:1/4] x2 | %11
[M:3/4] z z/ A/ A2 d>c | G>G G2 B>c | x6 |[M:2/4] x4 |[M:1/4] x2 |[M:3/4] x6 | x6 | x6 | %19
[M:2/4] x4 |] %20
V:4
 x6 | x6 | x6 | x6 |[M:2/4] x4 |[M:1/4] x2 |[M:3/4] x6 | x6 | x6 |[M:2/4] x4 |[M:1/4] x2 | %11
[M:3/4][K:treble] C->[A,C-] [A,C]2 B,>A, | E,>E, E,2 [E,G,E]>[E,A,E] | x6 |[M:2/4] x4 |[M:1/4] x2 | %16
[M:3/4] x6 | x6 | x6 |[M:2/4] x4 |] %20

